X:1
T:Title
%%score { 1 | 2 }
L:1/8
Q:1/4=100
M:4/4
K:G
V:1 treble nm="Grand Piano"
V:2 bass 
V:1
 G3 G [FA]3 [FA] | [GB]2 [AB]2 [GB]4 | [Gc]2 [Ge]2 [DGd]2 [DGB]2 | [^CEG]2 [CGB]2 [DFA]4 | %4
w: Frank~L.~Armstrong * * *||||
 [B,DG]3 [B,DG] [DFA]3 [DFA] | [DGB]2 [^DAB]2 [EGB]4 | [CGc]2 [Ge]2 [DGd]2 [DGB]2 | %7
w: |||
 [CFA]3 G G2 z2 | d3 B d3 B | [Ge]2 [DGd]2 [DGB]4 | d3 B d3 B | [Ge]2 [DGd]2 [DGB]4 | %12
w: |||||
 [G,DG]2 [G,DG]2 [DA]2 [DA]2 | [GB]2 [Fc]2 [=Fd]4 | [Ec]2 [Ge]2 [DGd]2 [DGB]2 | %15
w: |||
[M:9/8] [CFA]3 G G2- G z z |[M:4/4] d3 B d3 B | [Ge]2 [DGd]2 [DGB]4 | d3 B d3 B | %19
w: ||||
 [Ge]2 [DGd]2 [DGB]4 | [G,DG]2 [G,DG]2 [DA]2 [DA]2 | [GB]2 [Fc]2 [=Fd]4 | %22
w: |||
 [Ec]2 [Ge]2 [DGd]2 [DGB]2 |[M:9/8] [CFA]3 [B,G] [B,G]2- [B,G] z z |] %24
w: ||
V:2
 [G,B,D]3 [G,B,D] [D,D]3 [D,D] | [G,D]2 [F,^D]2 [E,E]4 | [E,C]2 [C,C]2 B,,2 D,2 | A,2 A,,2 D,4 | %4
 G,3 G, D,3 D, | G,2 F,2 E,4 | E,2 [C,C]2 B,,2 D,2 | D,3 [G,B,] [G,B,]2 z2 | %8
 [G,B,G]3 [G,DG] [G,B,G]3 [G,DG] | [C,C]2 B,,2 G,,4 | [G,B,G]3 [G,DG] [G,B,G]3 [G,DG] | %11
 [C,C]2 B,,2 G,,4 | B,,2 B,,2 [A,,F,]2 [A,,F,]2 | [G,,G,]2 [A,,G,]2 [B,,G,]4 | %14
 [C,C]2 [C,C]2 B,,2 D,2 |[M:9/8] D,3 [G,B,] [G,B,]2- [G,B,] z z | %16
[M:4/4][K:treble] [G,B,G]3 [G,DG] [G,B,G]3 [G,DG] | [C,C]2 B,,2 G,,4 | %18
 [G,B,G]3 [G,DG] [G,B,G]3 [G,DG] | [C,C]2 B,,2 G,,4 | B,,2 B,,2 [A,,F,]2 [A,,F,]2 | %21
 [G,,G,]2 [A,,G,]2 [B,,G,]4 | [C,C]2 [C,C]2 B,,2 D,2 |[M:9/8] D,3 G, G,2- G, z z |] %24

